force-app/main/default/staticresources/navsvglogos/FileContent.svg

<svg width="1em" height="1em" viewBox="0 0 24 24" fill="none" xmlns="http://www.w3.org/2000/svg" focusable="false" role="img"><path fill-rule="evenodd" clip-rule="evenodd" d="M14 0l7 7v17H3V0h11zm-2 2H5v20h14V8h-7V2zm3 15v2H7v-2h8zm2-4v2H7v-2h10zm-4-4v2H7V9h6zm1-6.17V6l3.17-.001L14 2.83z" fill="currentColor"></path></svg>

<svg width="24" height="24" viewBox="0 0 24 24" fill="none" xmlns="http://www.w3.org/2000/svg">
<path fill-rule="evenodd" clip-rule="evenodd" d="M14 0L21 7V24H3V0H14ZM12 2H5V22H19V8H12V2ZM15 17V19H7V17H15ZM17 13V15H7V13H17ZM13 9V11H7V9H13ZM14 2.83V6L17.17 5.999L14 2.83Z" fill="#262626"/>
</svg>
